X: 8737
T: Crying Mother, The
R: jig
M: 6/8
K: Edorian
B|EDE GBG|AGF DFF|GEG Bdf|geB fdA|
edc ddA|dBG AdF|EFG BGF|dAB BAB||
EDE GBG|AGF DFF|GEG Bdf|geB fdA|
edc dBA|GBG AdF|EFG BGF|DEE EDE||
GGG BBB|ABd fed|beb e2 e|fef def|
bbb eee|fef dBA|Bcd AGF|DEE EDE||
GGG BBB|ABd fad|ggb eee|fef dfa|
geb ede|fef dBA|Bcd AGF|DEE FGA||
BAB dcd|BAF DEF|GAB B2 F|DEE FGA|
BBG BBD|FGA FAF|GAB BGF|EED EEG||
BAB d2 d|BAF DEF|GAB BGF|DEE FGA|
BBA BBD|FGA AAF|GAB BGF|EED EEE||

